X:90
T:Priest (slide), The 
F:file ID fs.3/090priest
Z:bill@capeirish.com
B:FS3.40b
M:12/8
L:1/8
Q:170
R:slide
K:G
g|edB d2B d2B B2g|edB d2B c2A A2g|
edB d2B BAB g3|BAB g3 B2G G2 :|
e|gag faf g2e e2d|eaa aga b2e e2f|
gag faf g2e e2d|BAB g3 B2G G2 :|

